svg/l/NI.svg

<svg width="32" height="24" viewBox="0 0 32 24" fill="none" xmlns="http://www.w3.org/2000/svg">
<g clip-path="url(#clip0_270_67463)">
<rect width="32" height="24" fill="white"/>
<path fill-rule="evenodd" clip-rule="evenodd" d="M0 0V24H32V0H0Z" fill="#F7FCFF"/>
<mask id="mask0_270_67463" style="mask-type:luminance" maskUnits="userSpaceOnUse" x="0" y="0" width="32" height="24">
<path fill-rule="evenodd" clip-rule="evenodd" d="M0 0V24H32V0H0Z" fill="white"/>
</mask>
<g mask="url(#mask0_270_67463)">
<path fill-rule="evenodd" clip-rule="evenodd" d="M0 0V8H32V0H0Z" fill="#0080EC"/>
<path fill-rule="evenodd" clip-rule="evenodd" d="M0 16V24H32V16H0Z" fill="#0080EC"/>
<path fill-rule="evenodd" clip-rule="evenodd" d="M16 8C16.1885 8 16.3739 8.01303 16.5554 8.03825L16.3573 9.31426C16.2404 9.29886 16.1211 9.29091 16 9.29091C15.8239 9.29091 15.6516 9.30772 15.4849 9.33982L15.3923 8.04587C15.5905 8.01566 15.7934 8 16 8ZM17.1521 8.16841L16.8045 9.41237C17.9079 9.75505 18.7091 10.784 18.7091 12C18.7091 12.0299 18.7086 12.0597 18.7076 12.0893L19.9952 12.1985C19.9984 12.1327 20 12.0666 20 12C20 10.1914 18.7996 8.66311 17.1521 8.16841ZM19.5134 13.9136C18.8796 15.075 17.6866 15.8874 16.2963 15.9892V14.6931C17.037 14.6125 17.688 14.2334 18.1265 13.6786L19.5134 13.9136ZM12.5768 14.0704C13.2408 15.1658 14.4158 15.9171 15.7712 15.9936V14.6996C14.9812 14.6335 14.2876 14.2285 13.8363 13.6304L12.5768 14.0704ZM12.0036 12.1715C12.0012 12.1146 12 12.0575 12 12C12 10.3016 13.0586 8.85037 14.5519 8.27017L14.8858 9.52992C13.9509 9.95231 13.2986 10.8899 13.291 11.9807L12.0036 12.1715Z" fill="#D0AB00"/>
<path fill-rule="evenodd" clip-rule="evenodd" d="M15.9748 8.94974L13.2379 13.6805H18.7546L15.9748 8.94974Z" fill="#7CDFFF"/>
<mask id="mask1_270_67463" style="mask-type:luminance" maskUnits="userSpaceOnUse" x="13" y="8" width="6" height="6">
<path fill-rule="evenodd" clip-rule="evenodd" d="M15.9748 8.94974L13.2379 13.6805H18.7546L15.9748 8.94974Z" fill="white"/>
</mask>
<g mask="url(#mask1_270_67463)">
<path d="M16 15.1182C17.3205 15.1182 18.3909 14.0477 18.3909 12.7273C18.3909 11.4068 17.3205 10.3364 16 10.3364C14.6796 10.3364 13.6091 11.4068 13.6091 12.7273C13.6091 14.0477 14.6796 15.1182 16 15.1182Z" stroke="#E31D1C"/>
<path d="M16 15.1182C17.3205 15.1182 18.3909 14.0477 18.3909 12.7273C18.3909 11.4068 17.3205 10.3364 16 10.3364C14.6796 10.3364 13.6091 11.4068 13.6091 12.7273C13.6091 14.0477 14.6796 15.1182 16 15.1182Z" stroke="#FFD018"/>
<path d="M16 15.1182C17.3205 15.1182 18.3909 14.0477 18.3909 12.7273C18.3909 11.4068 17.3205 10.3364 16 10.3364C14.6796 10.3364 13.6091 11.4068 13.6091 12.7273C13.6091 14.0477 14.6796 15.1182 16 15.1182Z" stroke="#4EDD00"/>
<path d="M16 15.1182C17.3205 15.1182 18.3909 14.0477 18.3909 12.7273C18.3909 11.4068 17.3205 10.3364 16 10.3364C14.6796 10.3364 13.6091 11.4068 13.6091 12.7273C13.6091 14.0477 14.6796 15.1182 16 15.1182Z" stroke="#3D58DB"/>
<rect x="13.0182" y="12.2182" width="6.25455" height="1.81818" fill="#3D58DB"/>
<path fill-rule="evenodd" clip-rule="evenodd" d="M13.4369 12.9909L14.6835 11.7513L15.066 12.3711L15.3333 11.6152L15.6301 12.1818L15.9419 11.7513L16.3453 12.1818L16.7151 11.6152L17.0313 12.1818L17.394 11.7513L18.2416 12.652L18.3941 12.9909L13.4369 13.2424V12.9909Z" fill="#97C923"/>
</g>
</g>
</g>
<defs>
<clipPath id="clip0_270_67463">
<rect width="32" height="24" fill="white"/>
</clipPath>
</defs>
</svg>

<svg width="32" height="24" fill="none" xmlns="http://www.w3.org/2000/svg">
  <mask id="a" maskUnits="userSpaceOnUse" x="0" y="0" width="32" height="24">
    <path fill="#fff" d="M0 0h32v24H0z"/>
  </mask>
  <g mask="url(#a)">
    <path fill-rule="evenodd" clip-rule="evenodd" d="M0 0v24h32V0H0z" fill="#F7FCFF"/>
    <mask id="b" maskUnits="userSpaceOnUse" x="0" y="0" width="32" height="24">
      <path fill-rule="evenodd" clip-rule="evenodd" d="M0 0v24h32V0H0z" fill="#fff"/>
    </mask>
    <g mask="url(#b)">
      <path fill-rule="evenodd" clip-rule="evenodd" d="M0 0v8h32V0H0zm0 16v8h32v-8H0z" fill="#0080EC"/>
      <path fill-rule="evenodd" clip-rule="evenodd" d="M16 8c.189 0 .374.013.555.038l-.198 1.276a2.735 2.735 0 00-.872.026l-.093-1.294A4.03 4.03 0 0116 8zm1.152.168l-.348 1.244a2.71 2.71 0 011.904 2.677l1.287.11a4.002 4.002 0 00-2.843-4.03zm2.361 5.746a4 4 0 01-3.217 2.075v-1.296a2.704 2.704 0 001.83-1.014l1.387.235zm-6.936.156a4 4 0 003.194 1.924V14.7a2.706 2.706 0 01-1.935-1.07l-1.26.44zm-.573-1.899a4.002 4.002 0 012.548-3.901l.334 1.26a2.71 2.71 0 00-1.595 2.45l-1.287.191z" fill="#D0AB00"/>
      <path fill-rule="evenodd" clip-rule="evenodd" d="M15.975 8.95l-2.737 4.73h5.517l-2.78-4.73z" fill="#7CDFFF"/>
      <mask id="c" maskUnits="userSpaceOnUse" x="13" y="8" width="6" height="6">
        <path fill-rule="evenodd" clip-rule="evenodd" d="M15.975 8.95l-2.737 4.73h5.517l-2.78-4.73z" fill="#fff"/>
      </mask>
      <g mask="url(#c)">
        <path d="M16 15.118a2.39 2.39 0 100-4.782 2.39 2.39 0 000 4.782z" stroke="#E31D1C"/>
        <path d="M16 15.118a2.39 2.39 0 100-4.782 2.39 2.39 0 000 4.782z" stroke="#FFD018"/>
        <path d="M16 15.118a2.39 2.39 0 100-4.782 2.39 2.39 0 000 4.782z" stroke="#4EDD00"/>
        <path d="M16 15.118a2.39 2.39 0 100-4.782 2.39 2.39 0 000 4.782z" stroke="#3D58DB"/>
        <path fill="#3D58DB" d="M13.018 12.218h6.255v1.818h-6.255z"/>
        <path fill-rule="evenodd" clip-rule="evenodd" d="M13.437 12.99l1.247-1.239.382.62.267-.756.297.567.312-.43.403.43.37-.567.316.567.363-.43.848.9.152.339-4.957.251v-.251z" fill="#97C923"/>
      </g>
    </g>
  </g>
</svg>
